src/images_karasa_jaga_svg/starmath/res/at21710.svg

<svg height="24" viewBox="0 0 24 24" width="24" xmlns="http://www.w3.org/2000/svg"><g transform="matrix(1 0 0 -1 0 23.739368)"><path d="m14.842738 5.8152674c.05533 0 .1245.02075.207499.06225.083.055333.18675.138333.311249.2489989.138333.1106662.248999.2074991.331999.2904988.083.096833.214415.2351657.394248.4149983l.414998.4149983.248999-.2074992c-.76083-.9406627-1.327994-1.5562435-1.701493-1.8467423-.373498-.2904988-.767746-.4357482-1.182745-.4357482-.553331 0-.829996.2835822-.829996.8507465 0 .3458319.159083 1.1412452.477248 2.3862401-.912997-1.2864947-1.653077-2.1510744-2.220241-2.5937393-.567165-.4426648-1.217329-.6639972-1.9504921-.6639972-.6639973 0-1.1827451.2005825-1.5562436.6017475-.3734984.4149983-.5602476.9821626-.5602476 1.7014929 0 1.0651623.2974154 2.1510744.8922463 3.2577365.6086641 1.106662 1.3764108 2.019658 2.30324 2.738989.940663.71933 1.85366 1.078995 2.738989 1.078995.926829 0 1.48016-.401165 1.659993-1.203495l.228249.995996.06225.06225 1.265745.145249.145249-.06225c-.013833-.055333-.055333-.200583-.124499-.435748-1.231162-4.5096478-1.846743-7.0203873-1.846743-7.5322185 0-.1798326.09683-.269749.290499-.2697491zm-.394248 6.5777226c0 .387332-.117583.691664-.352749.912996-.221332.235166-.525664.352749-.912996.352749-.76083 0-1.487077-.442665-2.178741-1.327995-.677831-.885329-1.1896617-1.812159-1.5354936-2.780488-.3319987-.9544961-.497998-1.701493-.497998-2.2409908 0-.4703313.1106662-.8507464.3319987-1.1412452.2213324-.2766655.511831-.4149983.8714959-.4149983.650164 0 1.314161.3734984 1.991992 1.1204953.677831.7608302 1.224245 1.6599932 1.639243 2.6974889.428832 1.0374951.643248 1.9781581.643248 2.8219881z"/><path d="m13.020777 17.739368c.258381 0 .482764-.101992.673149-.305977.203985-.203983.305976-.435166.305976-.693546 0-.27198-.101991-.503161-.305976-.693547-.190385-.203984-.421567-.305976-.693546-.305976s-.509961.101992-.713945.305976c-.190386.190386-.285578.428367-.285578.713945 0 .271979.09519.503161.285578.693547.203984.190385.448764.285578.734342.285578z"/></g></svg>

<?xml version="1.0" encoding="UTF-8" standalone="no"?>
<!-- Created with Inkscape (http://www.inkscape.org/) -->

<svg
   xmlns:dc="http://purl.org/dc/elements/1.1/"
   xmlns:cc="http://creativecommons.org/ns#"
   xmlns:rdf="http://www.w3.org/1999/02/22-rdf-syntax-ns#"
   xmlns:svg="http://www.w3.org/2000/svg"
   xmlns="http://www.w3.org/2000/svg"
   xmlns:sodipodi="http://sodipodi.sourceforge.net/DTD/sodipodi-0.dtd"
   xmlns:inkscape="http://www.inkscape.org/namespaces/inkscape"
   version="1.1"
   id="svg2"
   width="24"
   height="24"
   viewBox="0 0 24 24"
   sodipodi:docname="at21710.svg"
   inkscape:version="0.92.3 (2405546, 2018-03-11)"
   inkscape:export-filename="/home/rizmut/Dokumen/Rizmut/Github/libreoffice-style-karasa-jaga/build/next/starmath/res/at21710.png"
   inkscape:export-xdpi="96"
   inkscape:export-ydpi="96">
  <metadata
     id="metadata8">
    <rdf:RDF>
      <cc:Work
         rdf:about="">
        <dc:format>image/svg+xml</dc:format>
        <dc:type
           rdf:resource="http://purl.org/dc/dcmitype/StillImage" />
        <dc:title></dc:title>
      </cc:Work>
    </rdf:RDF>
  </metadata>
  <defs
     id="defs6" />
  <sodipodi:namedview
     pagecolor="#ffffff"
     bordercolor="#666666"
     borderopacity="1"
     objecttolerance="10"
     gridtolerance="10"
     guidetolerance="10"
     inkscape:pageopacity="0"
     inkscape:pageshadow="2"
     inkscape:window-width="1366"
     inkscape:window-height="714"
     id="namedview4"
     showgrid="true"
     inkscape:zoom="64"
     inkscape:cx="9.526573"
     inkscape:cy="16.560496"
     inkscape:window-x="0"
     inkscape:window-y="28"
     inkscape:window-maximized="1"
     inkscape:current-layer="g855"
     inkscape:snap-global="true">
    <inkscape:grid
       type="xygrid"
       id="grid823" />
  </sodipodi:namedview>
  <g
     id="g855"
     transform="matrix(1,0,0,-1,0,23.739368)">
    <path
       d="m 14.842738,5.8152674 c 0.05533,0 0.1245,0.02075 0.207499,0.06225 0.083,0.055333 0.18675,0.138333 0.311249,0.2489989 0.138333,0.1106662 0.248999,0.2074991 0.331999,0.2904988 0.083,0.096833 0.214415,0.2351657 0.394248,0.4149983 L 16.502731,7.2470117 16.75173,7.0395125 C 15.9909,6.0988498 15.423736,5.483269 15.050237,5.1927702 14.676739,4.9022714 14.282491,4.757022 13.867492,4.757022 c -0.553331,0 -0.829996,0.2835822 -0.829996,0.8507465 0,0.3458319 0.159083,1.1412452 0.477248,2.3862401 C 12.601747,6.7075139 11.861667,5.8429342 11.294503,5.4002693 10.727338,4.9576045 10.077174,4.7362721 9.3440109,4.7362721 c -0.6639973,0 -1.1827451,0.2005825 -1.5562436,0.6017475 -0.3734984,0.4149983 -0.5602476,0.9821626 -0.5602476,1.7014929 0,1.0651623 0.2974154,2.1510744 0.8922463,3.2577365 0.6086641,1.106662 1.3764108,2.019658 2.30324,2.738989 0.940663,0.71933 1.85366,1.078995 2.738989,1.078995 0.926829,0 1.48016,-0.401165 1.659993,-1.203495 l 0.228249,0.995996 0.06225,0.06225 1.265745,0.145249 0.145249,-0.06225 C 16.509648,13.99765 16.468148,13.8524 16.398982,13.617235 15.16782,9.1075872 14.552239,6.5968477 14.552239,6.0850165 c 0,-0.1798326 0.09683,-0.269749 0.290499,-0.2697491 z M 14.44849,12.39299 c 0,0.387332 -0.117583,0.691664 -0.352749,0.912996 -0.221332,0.235166 -0.525664,0.352749 -0.912996,0.352749 -0.76083,0 -1.487077,-0.442665 -2.178741,-1.327995 C 10.326173,11.445411 9.8143423,10.518581 9.4685104,9.550252 9.1365117,8.5957559 8.9705124,7.848759 8.9705124,7.3092612 c 0,-0.4703313 0.1106662,-0.8507464 0.3319987,-1.1412452 0.2213324,-0.2766655 0.511831,-0.4149983 0.8714959,-0.4149983 0.650164,0 1.314161,0.3734984 1.991992,1.1204953 0.677831,0.7608302 1.224245,1.6599932 1.639243,2.6974889 0.428832,1.0374951 0.643248,1.9781581 0.643248,2.8219881 z"
       style="font-style:italic;font-variant:normal;font-weight:normal;font-stretch:normal;font-size:medium;line-height:1.25;font-family:FreeSerif;-inkscape-font-specification:'FreeSerif Italic';letter-spacing:0px;word-spacing:0px;fill:#000000;fill-opacity:1;stroke:none;stroke-width:0.51874781"
       id="path921"
       inkscape:connector-curvature="0"
       sodipodi:nodetypes="scccsccssscsscsccsccccccssscsccscsccs" />
    <path
       inkscape:connector-curvature="0"
       id="path917"
       style="font-style:italic;font-variant:normal;font-weight:normal;font-stretch:normal;font-size:medium;line-height:1.25;font-family:FreeSerif;-inkscape-font-specification:'FreeSerif Italic';letter-spacing:0px;word-spacing:0px;fill:#000000;fill-opacity:1;stroke:none;stroke-width:0.50996071"
       d="m 13.020777,17.739368 c 0.258381,0 0.482764,-0.101992 0.673149,-0.305977 0.203985,-0.203983 0.305976,-0.435166 0.305976,-0.693546 0,-0.27198 -0.101991,-0.503161 -0.305976,-0.693547 -0.190385,-0.203984 -0.421567,-0.305976 -0.693546,-0.305976 -0.271979,0 -0.509961,0.101992 -0.713945,0.305976 -0.190386,0.190386 -0.285578,0.428367 -0.285578,0.713945 0,0.271979 0.09519,0.503161 0.285578,0.693547 0.203984,0.190385 0.448764,0.285578 0.734342,0.285578 z"
       sodipodi:nodetypes="scscssscs" />
  </g>
</svg>
